X:372
T: ES BLIES EIN JAEGER
N: F0661
O: Europa, Mitteleuropa, Deutschland
R: Staende -, Jaeger - Lied, Liebe, Tod
M: 2/4
L: 1/16
K: A
E2 | E2A2AAc2 | BAGFE4
d4cAec | B4z2
Ac | eeeeecA2 | d2d2d4
c2c2e4 | BAGFE2
E2 | AAccecA2 | cBB2A2

